X: 1
T: Copper Hills Of Beara, The
M: 4/4
L: 1/8
R: reel
K: Gmaj
|:BdAd BdAd|BGGF G2GF|EFGE DEGA|B2dB A2dc|
BdAd BdAd|BGGF G2GF|EFGE DEGA|B2Ac BGdc:|
|:Bd(3ddd dedB|d2(3def gfed|Bd (3def gfed|(3efg deBA A2|
B3A G3F| EFGE D3C|B,DGA Bddc |1 BdAd G2 dc:|2 BdAd G4 ||
